X: 1
T:Rocking the Baby
M:6/8
L:1/8
Q:80
C:Trad. (Arranged by T. Tully)
S:Jig
K:HP
|: {g}ce{A}e{g}de{A}e|
{g}ce{A}e{gde}dcB|
{g}ce{A}e{g}de{A}e|  !
{gAGAG}A2{d}A{gcd}cB{G}A{g}ce{A}e{g}de{A}e|
{g}ce{A}e{gde}dcB|
{gAGAG}A3{gBG}B2{d}c|  !
{g}A{d}A{e}A{gAGAG}A3:| |:
ac{G}c{gef}ec{G}c|
ac{G}c{gde}dcB|  !
ac{G}c{gef}ec{G}c|
{g}A{d}A{e}A{gcd}cB{G}Aac{G}c{gef}ec{G}c|
ac{G}c{gde}dcB|  !
{gAGAG}A3{gBG}B2{d}c|
{g}A{d}A{e}A{gAGAG}A3:|
